X: 36148
T: Scotch Mary
R: reel
M: 4/4
K: Fmajor
EFGF EFGF|EDG,A, B,3G,|EFGF EFGF|ECDE C2 (3CCC|
EFGF EFGF|EDG,A, B,CDF|EFGA BAGF|1 ECDE C2 (3CCC:|2 ECDE CGAB||
[Cc]3 A G2 (3GGF|DFGA B2AB|[Cc]3 A GAGF|ECDE C2 (3CCC|
[Cc]3 A G2 (3GGF|DFGA B2AB|[Cc]3 A GAGF|1 ECDE CGAB:|2 ECDE C2 (3CCC||

